icon/pk/distortion.svg

<svg width="48" height="48" fill="none" xmlns="http://www.w3.org/2000/svg"><path d="M4 19v21h13M4 19V8h13M4 19s9-6 20 0 20 0 20 0m0 0V8H17m27 11v21H17M4 29s9-6 20 0 20 0 20 0M17 8s6 8 0 16 0 16 0 16M31 8s6 8 0 16 0 16 0 16" stroke="#000" stroke-width="4" stroke-linecap="round" stroke-linejoin="round"/></svg>

<svg viewBox="0 0 48 48" fill="none" xmlns="http://www.w3.org/2000/svg" height="1em" width="1em">
  <path d="M4 19V40H17M4 19V8H17M4 19C4 19 13 13 24 19C35 25 44 19 44 19M44 19V8H17M44 19V40H17M4 29C4 29 13 23 24 29C35 35 44 29 44 29M17 8C17 8 23 16 17 24C11 32 17 40 17 40M31 8C31 8 37 16 31 24C25 32 31 40 31 40" stroke="black" stroke-width="4" stroke-linecap="round" stroke-linejoin="round"/>
</svg>
